dist/svg/paste.svg

<!-- Generated by Trend Micro Style Portal -->
<svg version="1.1" xmlns="http://www.w3.org/2000/svg" width="16" height="16" viewBox="0 0 16 16">
  <title>paste</title>
  <path fill="rgb(34,34,34)" d="M13 5h-5.31c-0.381 0-0.69 0.309-0.69 0.69v0 9.62c0 0.381 0.309 0.69 0.69 0.69v0h7.62c0.381 0 0.69-0.309 0.69-0.69v0-7.31zM13 6.41l1.59 1.59h-1.59zM8 15v-9h4v3h3v6zM8 0h-5v2h5zM10 1h-1v2h-7v-2h-1c-0.001-0-0.003-0-0.005-0-0.517 0-0.942 0.392-0.995 0.896l-0 0.004v11.2c0 0.497 0.403 0.9 0.9 0.9v0h5.1v-10h5v-2c-0.040-0.536-0.464-0.96-0.996-1l-0.004-0z"></path>
</svg>

<svg width="16" height="16" viewBox="0 0 16 16" fill="rgb(34, 34, 34)" xmlns="http://www.w3.org/2000/svg"><title>paste</title><path d="M13 5H7.69C7.309 5 7 5.309 7 5.69V15.31C7 15.691 7.309 16 7.69 16H15.31C15.691 16 16 15.691 16 15.31V8L13 5ZM13 6.41L14.59 8H13V6.41ZM8 15V6H12V9H15V15H8ZM8 0H3V2H8V0ZM10 1H9V3H2V1H1C1 1 0.997 1 0.995 1C0.478 1 0.053 1.392 0 1.896V1.9V13.1C0 13.597 0.403 14 0.9 14H6V4H11V2C10.96 1.464 10.536 1.04 10.004 1H10Z" fill="rgb(34, 34, 34)" fill-opacity="1.00"/></svg>
